svgs/arrows/arrows-right.svg

<svg fill="none" xmlns="http://www.w3.org/2000/svg" viewBox="0 0 24 24"><path d="M4 7h11m0 0-4 4m4-4-4-4M4 17h16m0 0-4 4m4-4-4-4" stroke="#1C1D20" stroke-width="1.5" stroke-linecap="round" stroke-linejoin="round"/></svg>

<svg width="24" height="24" viewBox="0 0 24 24" fill="none" xmlns="http://www.w3.org/2000/svg">
<path d="M4 7H15M15 7L11 11M15 7L11 3M4 17H20M20 17L16 21M20 17L16 13" stroke="#1C1D20" stroke-width="1.5" stroke-linecap="round" stroke-linejoin="round"/>
</svg>
